svgs/google_keep.svg

<svg width="24" height="24" viewBox="0 0 24 24" fill="none" xmlns="http://www.w3.org/2000/svg">
<path d="M11.5007 22C12.6007 22 13.5007 21.1 13.5007 20H9.50067C9.50067 21.1 10.4007 22 11.5007 22Z" fill="black"/>
<path d="M15.4993 17H7.49933V19H15.4993V17Z" fill="black"/>
<path d="M11.5 2C7.36 2 4 5.36 4 9.5C4 13.32 6.66 15.36 7.77 16H15.23C16.34 15.36 19 13.32 19 9.5C19 5.36 15.64 2 11.5 2Z" fill="black"/>
</svg>

<svg xmlns="http://www.w3.org/2000/svg" width="24" height="24" fill="none" viewBox="0 0 24 24"><path fill="#000" d="M11.5 22c1.1 0 2-.9 2-2h-4c0 1.1.9 2 2 2m4-5h-8v2h8zm-4-15C7.36 2 4 5.36 4 9.5c0 3.82 2.66 5.86 3.77 6.5h7.46c1.11-.64 3.77-2.68 3.77-6.5C19 5.36 15.64 2 11.5 2"/></svg>
